teeny/outline/sort-high-to-low.svg

<svg width="15" height="15" viewBox="0 0 15 15" fill="none" xmlns="http://www.w3.org/2000/svg">
<path d="M11.5 0.5H12C12 0.223858 11.7761 0 11.5 0V0.5ZM12.5 11.5L12.9743 11.6581L12.5 11.5ZM12.9819 10.0543L12.5076 9.89614L12.9819 10.0543ZM4.5 14.5L4.14645 14.8536C4.24021 14.9473 4.36739 15 4.5 15C4.63261 15 4.75978 14.9473 4.85355 14.8536L4.5 14.5ZM10 1H11.5V0H10V1ZM11 0.5V6.5H12V0.5H11ZM10 7H13V6H10V7ZM11.8617 8H11V9H11.8617V8ZM12.9743 11.6581L13.4563 10.2124L12.5076 9.89614L12.0257 11.3419L12.9743 11.6581ZM11 12H12.5V11H11V12ZM11.9743 14.6581L12.9743 11.6581L12.0257 11.3419L11.0257 14.3419L11.9743 14.6581ZM9 10C9 11.1046 9.89543 12 11 12V11C10.4477 11 10 10.5523 10 10H9ZM11 8C9.89543 8 9 8.89543 9 10H10C10 9.44772 10.4477 9 11 9V8ZM11.8617 9C12.3264 9 12.6545 9.45527 12.5076 9.89614L13.4563 10.2124C13.8191 9.12397 13.0089 8 11.8617 8V9ZM4.85355 14.8536L7.85355 11.8536L7.14645 11.1464L4.14645 14.1464L4.85355 14.8536ZM4.85355 14.1464L1.85355 11.1464L1.14645 11.8536L4.14645 14.8536L4.85355 14.1464ZM4 0V14.5H5V0H4Z" fill="black"/>
</svg>

<svg viewBox="0 0 15 15" xmlns="http://www.w3.org/2000/svg"><path d="M11.5.5h.5c0-.28-.23-.5-.5-.5v.5Zm1 11l.47.15 -.48-.16Zm.48-1.45l-.48-.16 .47.15Zm-8.49 4.44l-.36.35c.09.09.22.14.35.14 .13 0 .25-.06.35-.15l-.36-.36ZM9.99.99h1.5v-1h-1.5v1Zm1-.5v6h1v-6h-1Zm-1 6.5h3v-1h-3v1Zm1.86 1h-.87v1h.86v-1Zm1.11 3.65l.48-1.45 -.95-.32 -.49 1.44 .94.31Zm-1.98.34h1.5v-1h-1.5v1Zm.97 2.65l1-3 -.95-.32 -1 3 .94.31ZM8.97 9.97c0 1.1.89 2 2 2v-1c-.56 0-1-.45-1-1h-1Zm2-2c-1.11 0-2 .89-2 2h1c0-.56.44-1 1-1v-1Zm.86 1c.46 0 .79.45.64.89l.94.31c.36-1.09-.45-2.22-1.6-2.22v1Zm-7.01 5.85l3-3 -.71-.71 -3 3 .7.7Zm0-.71l-3-3 -.71.7 3 3 .7-.71ZM3.96-.04v14.5h1V-.04h-1Z"/></svg>
